24x24/apps/lutris_starbound.svg

<svg xmlns="http://www.w3.org/2000/svg" width="24" height="24" version="1.1">
 <rect style="opacity:0.2" width="20" height="20" x="2" y="2.5" rx="1" ry="1"/>
 <rect style="fill:#7767c0" width="20" height="20" x="2" y="2" rx="1" ry="1"/>
 <path style="opacity:0.2" d="M 14.024,4.3625 12.96,5.9739 A 4.6428,4.6428 0 0 0 12.357,5.9286 4.6428,4.6428 0 0 0 10.578,6.2843 L 9.1359,5.0057 9.5238,6.9009 A 4.6428,4.6428 0 0 0 8.5137,7.9828 15.714,15.714 0 0 0 3.0715,7 15.714,15.714 0 0 0 2.0001,7.0537 V 7.7945 A 15.357,15.357 0 0 1 3.4287,7.7143 15.357,15.357 0 0 1 18.736,22 H 18.742 A 15.714,15.714 0 0 0 15.857,13.603 4.6428,4.6428 0 0 0 16.633,12.37 L 18.58,12.252 16.954,11.179 A 4.6428,4.6428 0 0 0 17,10.571 4.6428,4.6428 0 0 0 16.652,8.8122 L 17.937,7.3641 16.039,7.7526 A 4.6428,4.6428 0 0 0 14.14,6.2885 Z M 12.357,6.6428 A 3.9285,3.9285 0 0 1 16.286,10.571 3.9285,3.9285 0 0 1 15.411,13.033 15.714,15.714 0 0 0 9.1834,8.2646 3.9285,3.9285 0 0 1 12.357,6.6428 Z"/>
 <path style="fill:#f4f4f7" d="M 14.024,4.0054 12.96,5.6167 A 4.6428,4.6428 0 0 0 12.357,5.5714 4.6428,4.6428 0 0 0 10.578,5.9271 L 9.1356,4.6485 9.5235,6.5439 A 4.6428,4.6428 0 0 0 8.5135,7.6257 15.714,15.714 0 0 0 3.0714,6.6428 15.714,15.714 0 0 0 2,6.6964 V 7.4374 A 15.357,15.357 0 0 1 3.4285,7.3571 15.357,15.357 0 0 1 18.757,22 H 18.767 A 15.714,15.714 0 0 0 15.857,13.246 4.6428,4.6428 0 0 0 16.633,12.012 L 18.58,11.895 16.954,10.822 A 4.6428,4.6428 0 0 0 17,10.214 4.6428,4.6428 0 0 0 16.652,8.4549 L 17.937,7.0071 16.039,7.3953 A 4.6428,4.6428 0 0 0 14.14,5.9314 Z M 12.357,6.2857 A 3.9285,3.9285 0 0 1 16.286,10.214 3.9285,3.9285 0 0 1 15.411,12.676 15.714,15.714 0 0 0 9.1831,7.9074 3.9285,3.9285 0 0 1 12.357,6.2857 Z"/>
 <path style="fill:#f4f4f7;opacity:0.1" d="M 3 2 C 2.446 2 2 2.446 2 3 L 2 3.5 C 2 2.946 2.446 2.5 3 2.5 L 21 2.5 C 21.554 2.5 22 2.946 22 3.5 L 22 3 C 22 2.446 21.554 2 21 2 L 3 2 z"/>
</svg>

<svg xmlns="http://www.w3.org/2000/svg" width="24" height="24"><rect style="opacity:.2" width="20" height="20" x="2" y="2.5" rx="1" ry="1"/><rect style="fill:#7767c0" width="20" height="20" x="2" y="2" rx="1" ry="1"/><path style="opacity:.2" d="M14.024 4.362 12.96 5.974a4.643 4.643 0 0 0-.603-.045 4.643 4.643 0 0 0-1.779.355L9.136 5.006 9.524 6.9a4.643 4.643 0 0 0-1.01 1.082A15.714 15.714 0 0 0 3.072 7 15.714 15.714 0 0 0 2 7.054v.74a15.357 15.357 0 0 1 1.429-.08A15.357 15.357 0 0 1 18.736 22h.006a15.714 15.714 0 0 0-2.885-8.397 4.643 4.643 0 0 0 .776-1.233l1.947-.118-1.626-1.073a4.643 4.643 0 0 0 .046-.608 4.643 4.643 0 0 0-.348-1.759l1.285-1.448-1.898.389a4.643 4.643 0 0 0-1.899-1.465zm-1.667 2.28a3.929 3.929 0 0 1 3.929 3.929 3.929 3.929 0 0 1-.875 2.462 15.714 15.714 0 0 0-6.228-4.768 3.929 3.929 0 0 1 3.174-1.622z"/><path style="fill:#f4f4f7" d="M14.024 4.005 12.96 5.617a4.643 4.643 0 0 0-.603-.046 4.643 4.643 0 0 0-1.779.356L9.136 4.65l.388 1.895a4.643 4.643 0 0 0-1.01 1.082 15.714 15.714 0 0 0-5.443-.983A15.714 15.714 0 0 0 2 6.696v.741a15.357 15.357 0 0 1 1.429-.08A15.357 15.357 0 0 1 18.756 22h.01a15.714 15.714 0 0 0-2.91-8.754 4.643 4.643 0 0 0 .776-1.234l1.947-.117-1.626-1.073a4.643 4.643 0 0 0 .046-.608 4.643 4.643 0 0 0-.348-1.76l1.285-1.447-1.898.388a4.643 4.643 0 0 0-1.899-1.464zm-1.667 2.28a3.929 3.929 0 0 1 3.929 3.929 3.929 3.929 0 0 1-.875 2.462 15.714 15.714 0 0 0-6.228-4.769 3.929 3.929 0 0 1 3.174-1.621z"/><path style="fill:#f4f4f7;opacity:.1" d="M3 2c-.554 0-1 .446-1 1v.5c0-.554.446-1 1-1h18c.554 0 1 .446 1 1V3c0-.554-.446-1-1-1H3z"/></svg>
